projects/flag-game/flags/Bosnia and Herzegovina.svg

<svg viewBox="0 0 1000 500" xmlns="http://www.w3.org/2000/svg"><path d="m0 0h1000v500h-1000z" fill="#002395"/><path d="m265.003906 0h500v500zm0 0" fill="#fecb00" fill-rule="evenodd"/><g fill="#fff" stroke="#fff" stroke-linecap="square" stroke-miterlimit="3.239307"><path d="m157.746094-.015625-10.664063 32.816406 27.917969-20.28125 27.917969 20.28125-10.664063-32.816406 27.925782-20.285156h-34.515626l-10.664062-32.824219-10.664062 32.824219h-34.515626zm0 0"/><path d="m220.246094 62.484375-10.664063 32.816406 27.917969-20.28125 27.917969 20.28125-10.664063-32.816406 27.925782-20.285156h-34.515626l-10.664062-32.824219-10.664062 32.824219h-34.515626zm0 0"/><path d="m282.746094 124.984375-10.664063 32.816406 27.917969-20.28125 27.917969 20.28125-10.664063-32.816406 27.925782-20.285156h-34.515626l-10.664062-32.824219-10.664062 32.824219h-34.515626zm0 0"/><path d="m345.246094 187.484375-10.664063 32.816406 27.917969-20.28125 27.917969 20.28125-10.664063-32.816406 27.925782-20.285156h-34.515626l-10.664062-32.824219-10.664062 32.824219h-34.515626zm0 0"/><path d="m407.746094 249.984375-10.664063 32.816406 27.917969-20.28125 27.917969 20.28125-10.664063-32.816406 27.925782-20.285156h-34.515626l-10.664062-32.824219-10.664062 32.824219h-34.515626zm0 0"/><path d="m470.246094 312.484375-10.664063 32.816406 27.917969-20.28125 27.917969 20.28125-10.664063-32.816406 27.925782-20.285156h-34.515626l-10.664062-32.824219-10.664062 32.824219h-34.515626zm0 0"/><path d="m532.746094 374.984375-10.664063 32.816406 27.917969-20.28125 27.917969 20.28125-10.664063-32.816406 27.925782-20.285156h-34.515626l-10.664062-32.824219-10.664062 32.824219h-34.515626zm0 0"/><path d="m595.246094 437.484375-10.664063 32.816406 27.917969-20.28125 27.917969 20.28125-10.664063-32.816406 27.925782-20.285156h-34.515626l-10.664062-32.824219-10.664062 32.824219h-34.515626zm0 0"/><path d="m657.746094 499.984375-10.664063 32.816406 27.917969-20.28125 27.917969 20.28125-10.664063-32.816406 27.925782-20.285156h-34.515626l-10.664062-32.824219-10.664062 32.824219h-34.515626zm0 0"/></g></svg>

<?xml version="1.0" encoding="UTF-8"?>
<svg xmlns="http://www.w3.org/2000/svg" xmlns:xlink="http://www.w3.org/1999/xlink" viewBox="0 0 1000 500" version="1.1">
<g id="surface204">
<rect x="0" y="0" width="1000" height="500" style="fill:rgb(0%,13.725281%,58.430481%);fill-opacity:1;stroke:none;"/>
<path style=" stroke:none;fill-rule:evenodd;fill:rgb(99.606323%,79.606628%,0%);fill-opacity:1;" d="M 265.003906 0 L 765.003906 0 L 765.003906 500 Z M 265.003906 0 "/>
<path style="fill-rule:nonzero;fill:rgb(99.998474%,99.998474%,99.998474%);fill-opacity:1;stroke-width:1;stroke-linecap:square;stroke-linejoin:miter;stroke:rgb(99.998474%,99.998474%,99.998474%);stroke-opacity:1;stroke-miterlimit:3.239307;" d="M 157.746094 -0.015625 L 147.082031 32.800781 L 175 12.519531 L 202.917969 32.800781 L 192.253906 -0.015625 L 220.179688 -20.300781 L 185.664062 -20.300781 L 175 -53.125 L 164.335938 -20.300781 L 129.820312 -20.300781 Z M 157.746094 -0.015625 "/>
<path style="fill-rule:nonzero;fill:rgb(99.998474%,99.998474%,99.998474%);fill-opacity:1;stroke-width:1;stroke-linecap:square;stroke-linejoin:miter;stroke:rgb(99.998474%,99.998474%,99.998474%);stroke-opacity:1;stroke-miterlimit:3.239307;" d="M 220.246094 62.484375 L 209.582031 95.300781 L 237.5 75.019531 L 265.417969 95.300781 L 254.753906 62.484375 L 282.679688 42.199219 L 248.164062 42.199219 L 237.5 9.375 L 226.835938 42.199219 L 192.320312 42.199219 Z M 220.246094 62.484375 "/>
<path style="fill-rule:nonzero;fill:rgb(99.998474%,99.998474%,99.998474%);fill-opacity:1;stroke-width:1;stroke-linecap:square;stroke-linejoin:miter;stroke:rgb(99.998474%,99.998474%,99.998474%);stroke-opacity:1;stroke-miterlimit:3.239307;" d="M 282.746094 124.984375 L 272.082031 157.800781 L 300 137.519531 L 327.917969 157.800781 L 317.253906 124.984375 L 345.179688 104.699219 L 310.664062 104.699219 L 300 71.875 L 289.335938 104.699219 L 254.820312 104.699219 Z M 282.746094 124.984375 "/>
<path style="fill-rule:nonzero;fill:rgb(99.998474%,99.998474%,99.998474%);fill-opacity:1;stroke-width:1;stroke-linecap:square;stroke-linejoin:miter;stroke:rgb(99.998474%,99.998474%,99.998474%);stroke-opacity:1;stroke-miterlimit:3.239307;" d="M 345.246094 187.484375 L 334.582031 220.300781 L 362.5 200.019531 L 390.417969 220.300781 L 379.753906 187.484375 L 407.679688 167.199219 L 373.164062 167.199219 L 362.5 134.375 L 351.835938 167.199219 L 317.320312 167.199219 Z M 345.246094 187.484375 "/>
<path style="fill-rule:nonzero;fill:rgb(99.998474%,99.998474%,99.998474%);fill-opacity:1;stroke-width:1;stroke-linecap:square;stroke-linejoin:miter;stroke:rgb(99.998474%,99.998474%,99.998474%);stroke-opacity:1;stroke-miterlimit:3.239307;" d="M 407.746094 249.984375 L 397.082031 282.800781 L 425 262.519531 L 452.917969 282.800781 L 442.253906 249.984375 L 470.179688 229.699219 L 435.664062 229.699219 L 425 196.875 L 414.335938 229.699219 L 379.820312 229.699219 Z M 407.746094 249.984375 "/>
<path style="fill-rule:nonzero;fill:rgb(99.998474%,99.998474%,99.998474%);fill-opacity:1;stroke-width:1;stroke-linecap:square;stroke-linejoin:miter;stroke:rgb(99.998474%,99.998474%,99.998474%);stroke-opacity:1;stroke-miterlimit:3.239307;" d="M 470.246094 312.484375 L 459.582031 345.300781 L 487.5 325.019531 L 515.417969 345.300781 L 504.753906 312.484375 L 532.679688 292.199219 L 498.164062 292.199219 L 487.5 259.375 L 476.835938 292.199219 L 442.320312 292.199219 Z M 470.246094 312.484375 "/>
<path style="fill-rule:nonzero;fill:rgb(99.998474%,99.998474%,99.998474%);fill-opacity:1;stroke-width:1;stroke-linecap:square;stroke-linejoin:miter;stroke:rgb(99.998474%,99.998474%,99.998474%);stroke-opacity:1;stroke-miterlimit:3.239307;" d="M 532.746094 374.984375 L 522.082031 407.800781 L 550 387.519531 L 577.917969 407.800781 L 567.253906 374.984375 L 595.179688 354.699219 L 560.664062 354.699219 L 550 321.875 L 539.335938 354.699219 L 504.820312 354.699219 Z M 532.746094 374.984375 "/>
<path style="fill-rule:nonzero;fill:rgb(99.998474%,99.998474%,99.998474%);fill-opacity:1;stroke-width:1;stroke-linecap:square;stroke-linejoin:miter;stroke:rgb(99.998474%,99.998474%,99.998474%);stroke-opacity:1;stroke-miterlimit:3.239307;" d="M 595.246094 437.484375 L 584.582031 470.300781 L 612.5 450.019531 L 640.417969 470.300781 L 629.753906 437.484375 L 657.679688 417.199219 L 623.164062 417.199219 L 612.5 384.375 L 601.835938 417.199219 L 567.320312 417.199219 Z M 595.246094 437.484375 "/>
<path style="fill-rule:nonzero;fill:rgb(99.998474%,99.998474%,99.998474%);fill-opacity:1;stroke-width:1;stroke-linecap:square;stroke-linejoin:miter;stroke:rgb(99.998474%,99.998474%,99.998474%);stroke-opacity:1;stroke-miterlimit:3.239307;" d="M 657.746094 499.984375 L 647.082031 532.800781 L 675 512.519531 L 702.917969 532.800781 L 692.253906 499.984375 L 720.179688 479.699219 L 685.664062 479.699219 L 675 446.875 L 664.335938 479.699219 L 629.820312 479.699219 Z M 657.746094 499.984375 "/>
</g>
</svg>
